source/assets/img/linktypes/docx.svg

<?xml version="1.0" encoding="UTF-8" standalone="no"?>
<svg width="26px" height="18px" viewBox="0 0 26 18" version="1.1" xmlns="http://www.w3.org/2000/svg" xmlns:xlink="http://www.w3.org/1999/xlink">
    <g id="Page-1" stroke="none" stroke-width="1" fill="none" fill-rule="evenodd">
        <g id="srf-app-global-icons" transform="translate(-309.000000, -2479.000000)">
            <g id="docx-icon" transform="translate(307.000000, 2479.000000)">
                <g transform="translate(2.000000, 0.000000)">
                    <polyline id="Stroke-1" stroke="#C91024" stroke-linecap="round" stroke-linejoin="round" points="12.5 7 12.5 0.5 21 0.5 25.5 5 25.5 17.5 12.5 17.5"></polyline>
                    <polyline id="Stroke-3" stroke="#C91024" stroke-linecap="round" stroke-linejoin="round" points="20.5 0.5 20.5 5.5 25.5 5.5"></polyline>
                    <path d="M0.52734375,9.2734375 L2.50390625,9.2734375 C2.85026215,9.2734375 3.14843625,9.29101545 3.3984375,9.32617188 C3.64843875,9.3613283 3.88736865,9.44726494 4.11523438,9.58398438 C4.3431001,9.72070381 4.54231686,9.90885297 4.71289062,10.1484375 C4.88346439,10.388022 5.01757764,10.6634099 5.11523438,10.9746094 C5.21289111,11.2858088 5.26171875,11.6627582 5.26171875,12.1054688 C5.26171875,12.949223 5.06119992,13.6425754 4.66015625,14.1855469 C4.25911258,14.7285183 3.56901531,15 2.58984375,15 L0.52734375,15 L0.52734375,9.2734375 Z M1.28515625,14.3203125 L2.51171875,14.3203125 C2.76172,14.3203125 2.98502506,14.3046877 3.18164062,14.2734375 C3.37825619,14.2421873 3.57747295,14.1575528 3.77929688,14.0195312 C3.9811208,13.8815097 4.14843684,13.6549495 4.28125,13.3398438 C4.41406316,13.024738 4.48046875,12.6080755 4.48046875,12.0898438 C4.48046875,11.803384 4.45507838,11.5358085 4.40429688,11.2871094 C4.35351537,11.0384102 4.25976631,10.81185 4.12304688,10.6074219 C3.98632744,10.4029938 3.82942797,10.2532557 3.65234375,10.1582031 C3.47525953,10.0631506 3.30273521,10.0052084 3.13476562,9.984375 C2.96679604,9.96354156 2.7513034,9.953125 2.48828125,9.953125 L1.28515625,9.953125 L1.28515625,14.3203125 Z M8.78515625,9.17578125 C9.58724359,9.17578125 10.243487,9.44791395 10.7539062,9.9921875 C11.2643255,10.5364611 11.5195312,11.2539018 11.5195312,12.1445312 C11.5195312,13.0325565 11.2630234,13.7467421 10.75,14.2871094 C10.2369766,14.8274767 9.58203523,15.0976562 8.78515625,15.0976562 C7.95963129,15.0976562 7.29557543,14.8177111 6.79296875,14.2578125 C6.29036207,13.6979139 6.0390625,13.014327 6.0390625,12.2070312 C6.0390625,11.2669224 6.29361725,10.5266954 6.80273438,9.98632812 C7.3118515,9.44596084 7.97265219,9.17578125 8.78515625,9.17578125 Z M8.77734375,14.4492188 C9.35807582,14.4492188 9.82877424,14.2460958 10.1894531,13.8398438 C10.550132,13.4335917 10.7317708,12.8684932 10.734375,12.1445312 C10.734375,11.3997359 10.5501321,10.8268249 10.1816406,10.4257812 C9.8131492,10.0247376 9.3502632,9.82421875 8.79296875,9.82421875 C8.22004922,9.82421875 7.74869977,10.0208314 7.37890625,10.4140625 C7.00911273,10.8072936 6.82421875,11.4101522 6.82421875,12.2226562 C6.82421875,12.8867221 7.00520652,13.4238261 7.3671875,13.8339844 C7.72916848,14.2441427 8.19921586,14.4492188 8.77734375,14.4492188 Z M17.3515625,13.1835938 C17.184895,13.8268261 16.8938823,14.306639 16.4785156,14.6230469 C16.063149,14.9394547 15.5651071,15.0976562 14.984375,15.0976562 C14.0468703,15.0976562 13.3639344,14.8040394 12.9355469,14.2167969 C12.5071593,13.6295544 12.2929688,12.9231812 12.2929688,12.0976562 C12.2929688,11.1835892 12.5449194,10.4681015 13.0488281,9.95117188 C13.5527369,9.43424221 14.2005169,9.17578125 14.9921875,9.17578125 C15.549482,9.17578125 16.0260397,9.31770691 16.421875,9.6015625 C16.8177103,9.88541809 17.0950513,10.3007785 17.2539062,10.8476562 L16.5117188,11.0234375 C16.3867181,10.624998 16.1966159,10.3255218 15.9414062,10.125 C15.6861966,9.92447816 15.3671894,9.82421875 14.984375,9.82421875 C14.3593719,9.82421875 13.8854183,10.0292948 13.5625,10.4394531 C13.2395817,10.8496114 13.078125,11.3997361 13.078125,12.0898438 C13.078125,12.8867227 13.2480452,13.4791647 13.5878906,13.8671875 C13.9277361,14.2552103 14.371091,14.4492188 14.9179688,14.4492188 C15.3658877,14.4492188 15.7298163,14.3281262 16.0097656,14.0859375 C16.2897149,13.8437488 16.4856765,13.4791691 16.5976562,12.9921875 L17.3515625,13.1835938 Z M22.953125,15 L22.015625,15 L20.8671875,13.375 C20.5859361,12.9765605 20.4088545,12.7096361 20.3359375,12.5742188 L20.3203125,12.5742188 C20.3203125,12.621094 19.7526098,13.4296796 18.6171875,15 L17.703125,15 L19.921875,12.015625 L17.9609375,9.2734375 L18.8632812,9.2734375 L20.0703125,10.984375 C20.2005215,11.1692718 20.2968747,11.3242181 20.359375,11.4492188 C20.460938,11.2747387 20.997391,10.5494855 21.96875,9.2734375 L22.7929688,9.2734375 L20.7851562,11.96875 L22.953125,15 Z" id="docx" fill="#C91024"></path>
                </g>
            </g>
        </g>
    </g>
</svg>

<svg width="26" height="18" viewBox="0 0 26 18" xmlns="http://www.w3.org/2000/svg"><g fill="none" fill-rule="evenodd"><path stroke="#C91024" stroke-linecap="round" stroke-linejoin="round" d="M12.5 7V.5H21L25.5 5v12.5h-13"/><path stroke="#C91024" stroke-linecap="round" stroke-linejoin="round" d="M20.5.5v5h5"/><path d="M.527 9.273h1.977c.346 0 .644.018.894.053s.49.121.717.258c.228.137.427.325.598.564.17.24.305.515.402.827.098.31.147.688.147 1.13 0 .844-.2 1.538-.602 2.08-.4.544-1.091.815-2.07.815H.527V9.273zm.758 5.047h1.227a4.3 4.3 0 0 0 .67-.047c.196-.03.395-.115.597-.253.202-.138.37-.365.502-.68.133-.315.2-.732.2-1.25a4.01 4.01 0 0 0-.077-.803 1.89 1.89 0 0 0-.281-.68 1.335 1.335 0 0 0-.47-.449 1.483 1.483 0 0 0-.518-.174 5.438 5.438 0 0 0-.647-.03H1.285v4.366zm7.5-5.144c.802 0 1.458.272 1.969.816.51.544.766 1.262.766 2.153 0 .888-.257 1.602-.77 2.142-.513.54-1.168.81-1.965.81-.825 0-1.49-.28-1.992-.84-.503-.56-.754-1.243-.754-2.05 0-.94.255-1.68.764-2.22.509-.541 1.17-.811 1.982-.811zm-.008 5.273c.581 0 1.052-.203 1.412-.61.361-.405.543-.97.545-1.694 0-.745-.184-1.318-.552-1.72a1.806 1.806 0 0 0-1.389-.6c-.573 0-1.044.196-1.414.59-.37.392-.555.995-.555 1.808 0 .664.181 1.2.543 1.611.362.41.832.615 1.41.615zm8.575-1.265c-.167.643-.458 1.123-.873 1.439-.416.316-.914.475-1.495.475-.937 0-1.62-.294-2.048-.881-.429-.587-.643-1.294-.643-2.12 0-.913.252-1.629.756-2.146.504-.517 1.152-.775 1.943-.775.557 0 1.034.142 1.43.426.396.283.673.699.832 1.246l-.742.175c-.125-.398-.315-.697-.57-.898-.256-.2-.575-.3-.958-.3-.625 0-1.099.204-1.421.614-.323.41-.485.96-.485 1.65 0 .798.17 1.39.51 1.778.34.388.783.582 1.33.582.448 0 .812-.12 1.092-.363.28-.242.476-.607.588-1.094l.754.192zM22.953 15h-.937l-1.149-1.625a10.179 10.179 0 0 1-.531-.8h-.016c0 .046-.567.855-1.703 2.425h-.914l2.219-2.984-1.961-2.743h.902l1.207 1.711c.13.185.227.34.29.465.1-.174.637-.9 1.609-2.176h.824l-2.008 2.696L22.953 15z" fill="#C91024"/></g></svg>
